!!!COM:	Busnoys, Antoine
!!!CDT:	~1430///-1492/11/06
!!!OTL:	Ma demoiselle m'a maistresse
!!!AGN:	Song; Chanson
!!!SCT:	Bus3038
!!!SCA:	Bus3038
!!!voices:	3
**kern	**kern	**kern
*staff3	*staff2	*staff1
*Ivox	*Ivox	*Ivox
*I"Contra	*I"Tenor	*I"Superius
*I'C	*I'T	*I'S
*clefGv2	*clefGv2	*clefG2
*k[]	*k[]	*k[]
*M3/1	*M3/1	*M3/1
*met(O)	*met(O)	*met(O)
=1-	=1-	=1-
!	!	!LO:TX:Z=20:t=Rondeau
1r	1e	1.e
1r	2c	.
.	2d	2f
1c	1e	1g
=2	=2	=2
0F	2f	1a
.	4e	.
.	4d	.
.	2c	1a
.	1d	.
1G	.	1b
.	[2e	.
=3	=3	=3
1A	2e]	1.cc
.	1A	.
1F	.	.
.	4G	4b
.	4F	4a
2G	2E	2g
2D	2F	2a
=4	=4	=4
2G	2E	2b
1A	2.e	2.cc
.	4d	4b
2A	2c	1a
1E	1B	.
.	.	2g#i
=5	=5	=5
1.e	0A	0.a
1f	.	.
.	1r	.
4e	.	.
4d	.	.
=6	=6	=6
2c	1A	1r
2.f	.	.
.	2G	1r
4e	.	.
1e	2E	.
.	1F	1a
2d	.	.
=7	=7	=7
1e	2E	2g
.	1A	2e
1r	.	1f
.	2B	.
1A	1c	2e
.	.	[2a
=8	=8	=8
2F	1d	2a]
2G	.	2b
1C	1e	1.cc
1F	1A	.
.	.	2b
=9	=9	=9
1E	1B	1g
1.e	1.c	1.a
2d	2B	2g
=10	=10	=10
1d	1G	2b
.	.	2r
2.c	1C	1e
4B	.	.
2.A	1r	1f
4G	.	.
=11	=11	=11
1G	1E	1g
1r	1F	2a
.	.	4g
.	.	4f
1B	1G	1e
=12	=12	=12
1.c	2A	2f
.	4G	1g
.	4F	.
.	2E	.
2B	2G	1e
2.A	1F	.
.	.	2d
4G	.	.
=13	=13	=13
2G	2E	2e
2F	2A	2f
2E	2G	2g
2C	1c	1a
1D	.	.
.	2B	4g
.	.	4f
=14	=14	=14
2C	2c	2e
2r	2f	2a
1C	2e	2g
.	2c	1cc
1G	1d	.
.	.	2b
=15	=15	=15
1CN	1cN	0ccN
2.E	1r	.
4F	.	.
1G	1B-	1r
=16	=16	=16
2F	1A	1r
1G	.	.
.	2G	1b-
1.D	1G	.
.	.	1a
.	2F	.
=17	=17	=17
2E	2G	2g
2G	2B-i	1g
1D	1A	.
.	.	2f
2E	2G	2g
[2F	[2A	[2cc
=18	=18	=18
4F]	4A]	4cc]
4G	4B-i	4b-i
2A	2c	4a
.	.	8gL
.	.	8aJ
2G	2d	2b-i
4A	4c	4a
4B-i	4B-i	4g
2c	2A	2f
4B-i	4B-i	4g
4A	4c	4a
=19	=19	=19
2G	2d	2b-i
4A	2.c	2.a
2F	.	.
4G	4B-i	4g
4D	4A	4f#i
4E	4G	4e
1D	1A	2.f#i
.	.	4e
=20	=20	=20
2r	1G	0.g
1d	.	.
.	1r	.
2B	.	.
1G	[1B	.
=21	=21	=21
2r	2B]	2g
1c	2.A	1f
.	4D	.
1B	2G	1e
.	1F	.
2A	.	2d
=22	=22	=22
1.B	2.E	1e
.	4F	.
.	2G	2r
1c	1A	2.e
.	.	4f
2d	2B	2g
=23	=23	=23
1e	2A	1a
.	2c	.
2r	2d	2b
1A	1e	1cc
4B	4d	4b
4c	4c	4a
=24	=24	=24
2d	2B	2g
2c	2A	2a
2B	2G	2b
2A	2A	2cc
2G	2E	2b
[2A	[2e	[2cc
=25	=25	=25
2A]	2e]	2cc]
4B	4d	4b
4c	4c	4a
2.G	4d	4b
.	4c	4a
.	4B	4g#i
4A	4A	4f#i
1E	1B	1g#i
=26	=26	=26
0.el	0.Al	0.al
==	==	==
*-	*-	*-
!!!RDF**kern: l=long note in original notation
!!!RDF**kern: i=editorial accidental
!!!RDF**kern: N=signum congruentiae
!!!ENC:	Chris Gage 04-13-2015
!!!END:	2015/05/05/
!!!EED:	Jesse Rodin
!!!EEV:	2015/09/21/
!!!ONB:	Translated from MusicXML and edited on 2015/09/21/ by Craig Sapp
!!muse2ps: C^@{COM}^i2I150v95,95,150Q16
